icons/linear-ele-arrow-up-right.svg

<svg xmlns="http://www.w3.org/2000/svg" width="32px" height="32px" viewBox="0 0 32 32" version="1.1">
    <title>linear-ele-arrow-up-right</title>
    <g id="linear-ele-arrow-up-right" stroke-width="1" fill-rule="evenodd">
        <path d="M10.5,6 L25,6 L25.0752385,6.00278786 L25.2007258,6.02024007 L25.3121425,6.04973809 L25.4232215,6.09367336 L25.5207088,6.14599545 L25.6170223,6.21292769 L25.7071408,6.29291093 C25.7425008,6.32828727 25.774687,6.36567442 25.8036654,6.40469339 L25.8753288,6.5159379 L25.9287745,6.62866398 L25.9641549,6.73400703 L25.9930928,6.8819045 L26,7 L26,21.5 C26,22.0522847 25.5522847,22.5 25,22.5 C24.4477153,22.5 24,22.0522847 24,21.5 L24,9.414 L8.20710678,25.2071068 C7.81658249,25.5976311 7.18341751,25.5976311 6.79289322,25.2071068 C6.40236893,24.8165825 6.40236893,24.1834175 6.79289322,23.7928932 L22.584,8 L10.5,8 C9.98716416,8 9.56449284,7.61395981 9.50672773,7.11662113 L9.5,7 C9.5,6.44771525 9.94771525,6 10.5,6 Z" id="&#36335;&#24452;" fill-rule="nonzero" />
    </g>
</svg>

<svg xmlns="http://www.w3.org/2000/svg" viewBox="0 0 32 32"><path fill="currentColor" d="M10.5 6H25l.075.003.126.017.111.03.111.044.098.052.096.067.09.08c.036.035.068.073.097.112l.071.11.054.114.035.105.03.148L26 7v14.5a1 1 0 0 1-2 0V9.414L8.207 25.207a1 1 0 1 1-1.414-1.414L22.584 8H10.5a1 1 0 0 1-.993-.883L9.5 7a1 1 0 0 1 1-1"/></svg>
